X:188
T:The Idle Road
R:Jig
M:6/8
L:1/8
K:G
E|"G"DBB "C"Dcc|"G"DBB "C"c2e|"G"dBG "D"FGA|"G"BGB "D"AFD|
"G"DBB "C"Dcc|"G"DBB "C"c2e|"G"dBG "D"FGA|[1"G"BGF G2 :|[2BGF GBd|:
"C"efg efg|"D"fed cAF|"G"G2g gfg|"D"afd cAF|
"G"DBB Dcc|DBB "C"c2e|"G"dBG "C"FGA|[1"G"BGF G2 :|[2"G"BGF GBd|
